public/avatar/shoe/182.svg

<svg xmlns:xlink="http://www.w3.org/1999/xlink" height="38.3" width="36.05" xmlns="http://www.w3.org/2000/svg"><use height="20.55" transform="translate(13.2 9.85)" width="19.95" xlink:href="#a"/><defs><g id="a" fill-rule="evenodd"><path d="M6.05-3.25Q7.15-3.45 9-2.2q.75.5-.1 2.9-.75 2.05-1.6 2.85-1.1 1.35.35 3.25.55.75.6 2.95l.5.3q.45.4-.2 3.1Q8 15 .75 15.5q-5.85.4-10.6-1.35-.75-.25-.75-3.95.75-.95.55-1.45-.3-1.5 1.85-4.2.2-.25-.15-2.25l-.95-3.6q-.05-.8.6-1.4.7-.55 1.25-.35l1.6-.05q.6-.6 5.5-1.75 2.8-.65 6.4 1.6" fill="#020000" transform="translate(10.6 5)"/><path d="M7.2 10.4q.2-.25.85 0 1.15.65-.3 2.8-.6.95-8.25 1.5-6.1.45-8.75-1.25-.5-.3-.7-1.7-.15-1.3.1-1.7.4-1.05 1-.5 5 4.9 16.05.85" fill="#fff" transform="translate(10.6 5)"/><path d="M.55 14.25q4.75-.2 6.85-1.35 1.6-.95.8-2.25 1.05.6-.3 2.8-.65.95-8.25 1.5-7.1.5-8.85-1.25-.85-.8-.85-3.25.05 2.3.85 2.55 4.4 1.5 9.75 1.25" fill="#aa9d9b" transform="translate(10.6 5)"/><path d="M4.3-3.6q.75.25 2 1.1l-.9.8q-.9.65-2.45 1.15L-3.2-.2q-2.25-.25-3.15-.85l-1.2-1 .25-.05h-.15l.45-.15 3.9-1.3 2.35-.5 2.55-.2 2.5.65" fill="#698907" transform="translate(10.6 5)"/><path d="m4.9-3.55.85.7.45.9L5.75-.7Q4.8.55 2.9 1.2l-2.5.3-2.65-.2q-2.7-.65-3.7-1.6L-7.2-1.45-7.6-2l.05-.05q.25.35 1.35-.4l1.25-.65 1.25-.45 2.5-.55 1.4-.2h1.25l1.25.05 1.2.2 1 .5" fill="#870675" transform="translate(10.6 5)"/><path d="M5.55-2.5q1.6-1.1 2.7.9.3.5-.5 2.5L6.5 3.25q-.85 1.05.4 3.45 1.05 2.2.5 4.2-.35 1.1-3.5 1.5l-5.95.3-2.25-.05q-4.4-.2-4.95-2.7-.55-2 1.65-4.95.9-1.2-.5-3.75Q-9.5-1.1-8-2.1q1-.7 2.9.65L-.3-1q3.75 0 5.85-1.5" fill="#f2db08" transform="translate(10.6 5)"/><path d="m3.45-3.8 1 .5.75.7q.2.15 0 .5l-.9.55L1.25-1l-4.85.2q-1.9-.3-2.5-.75-.75-.25-.65-.65.4-.15.7-.35L-4.8-3l.3-.05-.05.1-.05.25q0 .4.35.4l.75-.15 1.05-.25 1-.05h1.5l1.6-.1.8-.45q.2-.55-.4-.7l-1.1-.1 1.25.05 1.25.25" fill="#b50894" transform="translate(10.6 5)"/><path d="m3.7-2.1-.75 8.35q-6.45-3.5-7-5.55-.65-2.25.2-2.95.9-.8 4.15-.6 3.4.4 3.4.75" fill="#870675" transform="translate(10.6 5)"/><path d="m3.7-1.35-.25 8.3-7.9.5q.95-3.95.4-6-.65-2.25.2-2.95.9-.8 4.15-.6 3.4.4 3.4.75" fill="#bf7c06" transform="translate(10.6 5)"/><path d="M3.3-1.2 2.95 6q.2.65 0 .7h-6.7q.8-3.8.25-5.9-.5-1.65-.1-2.05 1-.85 4.05-.5 2.8.2 2.85.55" fill="#f4a506" transform="translate(10.6 5)"/><path d="M-4.25 6.9Q-7.8 8.25-9 7.75q.65-1.85 1.25-2.55.45-.45.25-1.75-.2-1.2-.45-1.55l-.4-1.1 2.15.1q2.35.15 2.75.75.75.85-.8 5.25m5.4 1.15Q1.9 8.2 4 11.2q-1.2.85-8.75-.05l.95-1.65 1.3-1.45q.95-.4 3.65 0m6.15-.3q-3.65.05-3.85-.8-.75-5.25-.05-5.5l4.4-.8L6.75 2.9l-.5 1.8L7.3 7.75" fill="#e02bb9" transform="translate(10.6 5)"/><path d="m-3.95 3.55.15-.05q.25 0 .05.2l-.25.35-.35.45.05.45.45.6q.3.35-.1.35l-.8-.1-.5-.55-.25-.55.2-.55.7-.45.65-.15m.35-3.3.05.25-.65.75.1.5.35.55q.25.4-.05.4l-.75-.15-.55-.5-.25-.55.25-.55.65-.45.65-.2-.05.1.25-.15m8-.3-.35-.3-.25-.2h.75l.7.45.25.3.05.35-.25.7-.85.4-.75.05-.25-.05-.05-.2.25-.05.25-.2.5-.55v-.7m-1.2 3.1h-.15l.9.1q.45.1.7.35l.25.3.05.4-.25.75-.9.35-.75.1-.25-.15-.05-.1L3 5l.25-.2.5-.55v-.6l-.3-.4-.25-.2" fill="#020000" transform="translate(10.6 5)"/><path d="M7.7 9.55q.3 2-1.9 2.5l-6.65.7q-5.35.15-6.95-.85-1.55-.85-1.4-3l1.25 1.25q1.65 1.5 11.75 1.05 3.1-.2 3.9-1.65" fill="#f4a506" transform="translate(10.6 5)"/><path d="M6.25 12.25H7l-.2.3q-.25.4-1.4.45l-1.9.2-.6.1h-.65l-.25.1h-.3l-.65.05-1.8-.3L.3 13l5.95-.75" fill="#fff" transform="translate(10.6 5)"/><path d="M3.9-.45q.4.65-.4 1.7-.7 1.05-2.45.9l-3.85.35.05-.05q-.55.25-.95-.25l-.15-.8q.3-1 1.75-1.5 1.4-.65 3.35-.85 2.2-.15 2.65.5" fill="#1f1e21" transform="translate(10.6 5)"/><path d="M.8 2.25q1.75-.1 2.4.9.55 1-.15 1.85-.25.4-2.05.4l-2.8.15-1.9.2q-.8-.95.2-2.05l.9-.75.9-.45.85-.05 1.65-.2" fill="#1f1e21" transform="translate(10.6 5)"/><path d="m2.7 1.2-1.2.35-4.5.6q-.55-.1-.25-1Q-3 .5-1.7.15 2.2-1 3.15-.25q.3.25-.45 1.45m-.4 1.95q.25.1.2.8l-.35.8-2.4.15-2.95.55q-.5-.15.15-1.45.35-.75 1.1-.85 2.4-.75 4.25 0" fill="#c1bab9" transform="translate(10.6 5)"/><path d="m-1.8 2.05-1.55-.15q-.4-.6.5-1.35l1.9-.65q.7-.15-.85 2.25v-.1m.85.85-.5 2.25-1.3.3q-.6 0-.7-.3 0-.75.75-1.65l1.75-.6" fill="#fff" transform="translate(10.6 5)"/></g></defs></svg>

<?xml version="1.0" encoding="UTF-8" standalone="no"?>
<svg xmlns:xlink="http://www.w3.org/1999/xlink" height="38.3px" width="36.05px" xmlns="http://www.w3.org/2000/svg">
  <g transform="matrix(1.0, 0.0, 0.0, 1.0, 23.8, 14.85)">
    <use height="20.55" transform="matrix(1.0, 0.0, 0.0, 1.0, -10.6, -5.0)" width="19.95" xlink:href="#shape0"/>
  </g>
  <defs>
    <g id="shape0" transform="matrix(1.0, 0.0, 0.0, 1.0, 10.6, 5.0)">
      <path d="M6.05 -3.25 Q7.15 -3.45 9.0 -2.2 9.75 -1.7 8.9 0.7 8.15 2.75 7.3 3.55 6.2 4.9 7.65 6.8 8.2 7.55 8.25 9.75 L8.75 10.05 Q9.2 10.45 8.55 13.15 8.0 15.0 0.75 15.5 -5.1 15.9 -9.85 14.15 -10.6 13.9 -10.6 10.2 -9.85 9.25 -10.05 8.75 -10.35 7.25 -8.2 4.55 -8.0 4.3 -8.35 2.3 L-9.3 -1.3 Q-9.35 -2.1 -8.7 -2.7 -8.0 -3.25 -7.45 -3.05 L-5.85 -3.1 Q-5.25 -3.7 -0.35 -4.85 2.45 -5.5 6.05 -3.25" fill="#020000" fill-rule="evenodd" stroke="none"/>
      <path d="M7.2 10.4 Q7.4 10.15 8.05 10.4 9.2 11.05 7.75 13.2 7.15 14.15 -0.5 14.7 -6.6 15.15 -9.25 13.45 -9.75 13.15 -9.95 11.75 -10.1 10.45 -9.85 10.05 -9.45 9.0 -8.85 9.55 -3.85 14.45 7.2 10.4" fill="#ffffff" fill-rule="evenodd" stroke="none"/>
      <path d="M0.55 14.25 Q5.3 14.05 7.4 12.9 9.0 11.95 8.2 10.65 9.25 11.25 7.9 13.45 7.25 14.4 -0.35 14.95 -7.45 15.45 -9.2 13.7 -10.05 12.9 -10.05 10.45 -10.0 12.75 -9.2 13.0 -4.8 14.5 0.55 14.25" fill="#aa9d9b" fill-rule="evenodd" stroke="none"/>
      <path d="M4.3 -3.6 Q5.05 -3.35 6.3 -2.5 L5.4 -1.7 Q4.5 -1.05 2.95 -0.55 L-3.2 -0.2 Q-5.45 -0.45 -6.35 -1.05 L-7.55 -2.05 -7.3 -2.1 -7.45 -2.1 -7.0 -2.25 -3.1 -3.55 -0.75 -4.05 1.8 -4.25 4.3 -3.6" fill="#698907" fill-rule="evenodd" stroke="none"/>
      <path d="M4.9 -3.55 L5.75 -2.85 6.2 -1.95 5.75 -0.7 Q4.8 0.55 2.9 1.2 L0.4 1.5 -2.25 1.3 Q-4.95 0.65 -5.95 -0.3 L-7.2 -1.45 -7.6 -2.0 -7.55 -2.05 Q-7.3 -1.7 -6.2 -2.45 L-4.95 -3.1 -3.7 -3.55 -1.2 -4.1 0.2 -4.3 1.45 -4.3 2.7 -4.25 3.9 -4.05 4.9 -3.55" fill="#870675" fill-rule="evenodd" stroke="none"/>
      <path d="M5.55 -2.5 Q7.15 -3.6 8.25 -1.6 8.55 -1.1 7.75 0.9 L6.5 3.25 Q5.65 4.3 6.9 6.7 7.95 8.9 7.4 10.9 7.05 12.0 3.9 12.4 L-2.05 12.7 -4.3 12.65 Q-8.7 12.45 -9.25 9.95 -9.8 7.95 -7.6 5.0 -6.7 3.8 -8.1 1.25 -9.5 -1.1 -8.0 -2.1 -7.0 -2.8 -5.1 -1.45 L-0.3 -1.0 Q3.45 -1.0 5.55 -2.5" fill="#f2db08" fill-rule="evenodd" stroke="none"/>
      <path d="M3.45 -3.8 L4.45 -3.3 5.2 -2.6 Q5.4 -2.45 5.2 -2.1 L4.3 -1.55 1.25 -1.0 -3.6 -0.8 Q-5.5 -1.1 -6.1 -1.55 -6.85 -1.8 -6.75 -2.2 -6.35 -2.35 -6.05 -2.55 L-4.8 -3.0 -4.5 -3.05 -4.55 -2.95 -4.6 -2.7 Q-4.6 -2.3 -4.25 -2.3 L-3.5 -2.45 -2.45 -2.7 -1.45 -2.75 0.05 -2.75 1.65 -2.85 2.45 -3.3 Q2.65 -3.85 2.05 -4.0 L0.95 -4.1 2.2 -4.05 3.45 -3.8" fill="#b50894" fill-rule="evenodd" stroke="none"/>
      <path d="M3.7 -2.1 L2.95 6.25 Q-3.5 2.75 -4.05 0.7 -4.7 -1.55 -3.85 -2.25 -2.95 -3.05 0.3 -2.85 3.7 -2.45 3.7 -2.1" fill="#870675" fill-rule="evenodd" stroke="none"/>
      <path d="M3.7 -1.35 L3.45 6.95 -4.45 7.45 Q-3.5 3.5 -4.05 1.45 -4.7 -0.8 -3.85 -1.5 -2.95 -2.3 0.3 -2.1 3.7 -1.7 3.7 -1.35" fill="#bf7c06" fill-rule="evenodd" stroke="none"/>
      <path d="M3.3 -1.2 L2.95 6.0 Q3.15 6.65 2.95 6.7 L-3.75 6.7 Q-2.95 2.9 -3.5 0.8 -4.0 -0.85 -3.6 -1.25 -2.6 -2.1 0.45 -1.75 3.25 -1.55 3.3 -1.2" fill="#f4a506" fill-rule="evenodd" stroke="none"/>
      <path d="M-4.25 6.9 Q-7.8 8.25 -9.0 7.75 -8.35 5.9 -7.75 5.2 -7.3 4.75 -7.5 3.45 -7.7 2.25 -7.95 1.9 L-8.35 0.8 -6.2 0.9 Q-3.85 1.05 -3.45 1.65 -2.7 2.5 -4.25 6.9" fill="#e02bb9" fill-rule="evenodd" stroke="none"/>
      <path d="M1.15 8.05 Q1.9 8.2 4.0 11.2 2.8 12.05 -4.75 11.15 L-3.8 9.5 -2.5 8.05 Q-1.55 7.65 1.15 8.05" fill="#e02bb9" fill-rule="evenodd" stroke="none"/>
      <path d="M7.3 7.75 Q3.65 7.8 3.45 6.95 2.7 1.7 3.4 1.45 L7.8 0.65 6.75 2.9 6.25 4.7 7.3 7.75" fill="#e02bb9" fill-rule="evenodd" stroke="none"/>
      <path d="M-3.95 3.55 L-3.8 3.5 Q-3.55 3.5 -3.75 3.7 L-4.0 4.05 -4.35 4.5 -4.3 4.95 -3.85 5.55 Q-3.55 5.9 -3.95 5.9 L-4.75 5.8 -5.25 5.25 -5.5 4.7 -5.3 4.15 -4.6 3.7 -3.95 3.55" fill="#020000" fill-rule="evenodd" stroke="none"/>
      <path d="M-3.6 0.25 L-3.55 0.5 -4.2 1.25 -4.1 1.75 -3.75 2.3 Q-3.5 2.7 -3.8 2.7 L-4.55 2.55 -5.1 2.05 -5.35 1.5 -5.1 0.95 -4.45 0.5 -3.8 0.3 -3.85 0.4 -3.6 0.25" fill="#020000" fill-rule="evenodd" stroke="none"/>
      <path d="M4.4 -0.05 L4.05 -0.35 3.8 -0.55 4.55 -0.55 5.25 -0.1 5.5 0.2 5.55 0.55 5.3 1.25 4.45 1.65 3.7 1.7 3.45 1.65 3.4 1.45 3.65 1.4 3.9 1.2 4.4 0.65 4.4 -0.05" fill="#020000" fill-rule="evenodd" stroke="none"/>
      <path d="M3.2 3.05 L3.05 3.05 3.95 3.15 Q4.4 3.25 4.65 3.5 L4.9 3.8 4.95 4.2 4.7 4.95 3.8 5.3 3.05 5.4 2.8 5.25 2.75 5.15 3.0 5.0 3.25 4.8 3.75 4.25 3.75 3.65 3.45 3.25 3.2 3.05" fill="#020000" fill-rule="evenodd" stroke="none"/>
      <path d="M7.7 9.55 Q8.0 11.55 5.8 12.05 L-0.85 12.75 Q-6.2 12.9 -7.8 11.9 -9.35 11.05 -9.2 8.9 L-7.95 10.15 Q-6.3 11.65 3.8 11.2 6.9 11.0 7.7 9.55" fill="#f4a506" fill-rule="evenodd" stroke="none"/>
      <path d="M6.25 12.25 L7.0 12.25 6.8 12.55 Q6.55 12.95 5.4 13.0 L3.5 13.2 2.9 13.3 2.25 13.3 2.0 13.4 1.7 13.4 1.05 13.45 -0.75 13.15 0.3 13.0 6.25 12.25" fill="#ffffff" fill-rule="evenodd" stroke="none"/>
      <path d="M3.9 -0.45 Q4.3 0.2 3.5 1.25 2.8 2.3 1.05 2.15 L-2.8 2.5 -2.75 2.45 Q-3.3 2.7 -3.7 2.2 L-3.85 1.4 Q-3.55 0.4 -2.1 -0.1 -0.7 -0.75 1.25 -0.95 3.45 -1.1 3.9 -0.45" fill="#1f1e21" fill-rule="evenodd" stroke="none"/>
      <path d="M0.8 2.25 Q2.55 2.15 3.2 3.15 3.75 4.15 3.05 5.0 2.8 5.4 1.0 5.4 L-1.8 5.55 -3.7 5.75 Q-4.5 4.8 -3.5 3.7 L-2.6 2.95 -1.7 2.5 -0.85 2.45 0.8 2.25" fill="#1f1e21" fill-rule="evenodd" stroke="none"/>
      <path d="M2.7 1.2 L1.5 1.55 -3.0 2.15 Q-3.55 2.05 -3.25 1.15 -3.0 0.5 -1.7 0.15 2.2 -1.0 3.15 -0.25 3.45 0.0 2.7 1.2" fill="#c1bab9" fill-rule="evenodd" stroke="none"/>
      <path d="M2.3 3.15 Q2.55 3.25 2.5 3.95 L2.15 4.75 -0.25 4.9 -3.2 5.45 Q-3.7 5.3 -3.05 4.0 -2.7 3.25 -1.95 3.15 0.45 2.4 2.3 3.15" fill="#c1bab9" fill-rule="evenodd" stroke="none"/>
      <path d="M-1.8 2.05 L-3.35 1.9 Q-3.75 1.3 -2.85 0.55 L-0.95 -0.1 Q-0.25 -0.25 -1.8 2.15 L-1.8 2.05" fill="#ffffff" fill-rule="evenodd" stroke="none"/>
      <path d="M-0.95 2.9 L-1.45 5.15 -2.75 5.45 Q-3.35 5.45 -3.45 5.15 -3.45 4.4 -2.7 3.5 L-0.95 2.9" fill="#ffffff" fill-rule="evenodd" stroke="none"/>
    </g>
  </defs>
</svg>
